X:39
T:Auld Eage and Young Never Grees the Gither
S:Petrie's Third Collection of Strathspey Reels and Country Dances &c.
Z:Steve Wyrick <sjwyrick'at'gmail'dot'com>, 7/30/05
N:Petrie's Third Collection, page 16
L:1/4
M:6/4
R:3/2 Hornpipe?
K:Gm
"^Slowish"
G2 B>c d c/B/|AFFc A/B/c/A/|G2 B>c dc/B/|AGgG A/B/c/A/:|G>AGG,B,2|DF2 BAF|
G>AGG,B,2|DG2BA^F::G/A/B/G/ A/B/c/A/ B/c/d/B/|AFFc A/B/c/A/|G/A/B/G/ A/B/c/A/ B/c/d/B/|AGgGA^F:|
g>agGA2|Ff2F A/B/c/A/|g>agGA2|Gg2GA/B/c/A/|g>agGA2|Ff2F A/B/c/A/|BA/B/cB/c/dc/d/|gf/e/dcBA|]
